img/flag.svg

<svg width="16" height="17" viewBox="0 0 16 17" fill="none" xmlns="http://www.w3.org/2000/svg">
<path d="M7.51199 6.45287V8.57787C8.32449 8.76537 9.04324 9.07787 9.79324 9.29662V7.17162C8.98074 6.98412 8.26199 6.67162 7.51199 6.45287ZM14.4807 2.60912C13.4182 3.10912 12.1057 3.60912 10.8245 3.60912C9.16824 3.60912 7.76199 2.51537 5.66824 2.51537C4.88699 2.51537 4.19949 2.67162 3.54324 2.89037C3.63699 2.67162 3.66824 2.42162 3.63699 2.17162C3.60574 1.26537 2.85574 0.577866 1.98074 0.515366C0.980743 0.484116 0.168243 1.29662 0.168243 2.26537C0.168243 2.85912 0.449493 3.39037 0.918243 3.70287V15.7654C0.918243 16.2029 1.23074 16.5154 1.66824 16.5154H2.16824C2.57449 16.5154 2.91824 16.2029 2.91824 15.7654V12.8279C3.79324 12.4529 4.88699 12.1404 6.48074 12.1404C8.16824 12.1404 9.54324 13.2341 11.637 13.2341C13.137 13.2341 14.3557 12.7029 15.4807 11.9529C15.7307 11.7654 15.887 11.4529 15.887 11.1091V3.51537C15.9182 2.79662 15.137 2.32787 14.4807 2.60912ZM5.19949 10.7029C4.38699 10.7966 3.63699 10.9529 2.91824 11.2341V9.01537C3.73074 8.73412 4.38699 8.54662 5.19949 8.48412V10.7029ZM14.4182 6.48412C13.6682 6.79662 12.9495 7.10912 12.1057 7.23412V9.45287C12.887 9.35912 13.6995 9.10912 14.4182 8.64037V10.8591C13.6057 11.3591 12.887 11.6404 12.1057 11.7029V9.45287C11.262 9.57787 10.6057 9.51537 9.79324 9.29662V11.3904C9.04324 11.1716 8.32449 10.8904 7.51199 10.7341V8.57787C6.88699 8.45287 6.23074 8.39037 5.19949 8.48412V6.29662C4.51199 6.39037 3.82449 6.60912 2.91824 6.95287V4.73412C3.94949 4.35912 4.48074 4.10912 5.19949 4.04662V6.29662C6.04324 6.17162 6.73074 6.23412 7.51199 6.45287V4.35912C8.23074 4.57787 8.98074 4.89037 9.79324 5.01537V7.17162C10.5432 7.32787 11.2932 7.39037 12.1057 7.23412V4.98412C12.9495 4.85912 13.7307 4.57787 14.4182 4.29662V6.48412Z" fill="white"/>
</svg>

<svg width="16" height="17" fill="none" xmlns="http://www.w3.org/2000/svg"><path d="M7.512 6.453v2.125c.812.187 1.531.5 2.281.719V7.172c-.812-.188-1.531-.5-2.281-.72zm6.969-3.844c-1.063.5-2.375 1-3.656 1-1.657 0-3.063-1.094-5.157-1.094-.781 0-1.469.157-2.125.375.094-.218.125-.468.094-.718C3.606 1.265 2.856.578 1.981.515c-1-.03-1.813.782-1.813 1.75 0 .594.281 1.125.75 1.438v12.062c0 .438.313.75.75.75h.5a.74.74 0 00.75-.75v-2.937c.875-.375 1.969-.688 3.563-.688 1.687 0 3.062 1.094 5.156 1.094 1.5 0 2.719-.531 3.844-1.281.25-.188.406-.5.406-.844V3.515c.031-.718-.75-1.187-1.406-.906zm-9.282 8.094c-.812.094-1.562.25-2.28.531V9.015c.812-.28 1.468-.468 2.28-.53v2.218zm9.22-4.219c-.75.313-1.47.625-2.313.75v2.219c.781-.094 1.594-.344 2.312-.813v2.22c-.812.5-1.531.78-2.312.843v-2.25c-.844.125-1.5.062-2.313-.156v2.093c-.75-.218-1.469-.5-2.281-.656V8.578c-.625-.125-1.281-.188-2.313-.094V6.297c-.687.093-1.375.312-2.28.656V4.734c1.03-.375 1.562-.625 2.28-.687v2.25c.844-.125 1.532-.063 2.313.156V4.359c.719.219 1.469.531 2.281.656v2.157c.75.156 1.5.218 2.313.062v-2.25c.844-.125 1.625-.406 2.312-.687v2.187z" fill="#fff"/></svg>
